X: 37771
T: Sondheim's Frolics
R: jig
M: 6/8
K: Amajor
|:cde age|~c3 cBA|~d3 def|eAc Bc/B/A|
cde age|~c3 cBA|FAc BAG|1 ~A3 A2B:|2 ~A3 A2E||
|:FAe fga|~e3 ecA|~d3 def|eAc Bc/B/A|
FAe fga|~e3 ecA|FAc BAG|~A3 A2E|
FAe fga|~e3 ecA|~d3 def|eAc Bce|
fdf geg|aed cBA|FAc BAG|~A3 A2B||

